packages/core/src/svgs/tokens/mono/FRA.svg

<svg width="24" height="24" viewBox="0 0 24 24" fill="none" xmlns="http://www.w3.org/2000/svg">
<path d="M6.55853 5.71464C6.56517 5.74238 6.57766 5.76838 6.59517 5.79088C6.61267 5.8134 6.63479 5.83189 6.66004 5.84515C6.68529 5.8584 6.71308 5.86611 6.74155 5.86773C6.77001 5.86936 6.79851 5.86488 6.8251 5.85461L16.6015 3.33553C16.8348 3.28222 16.808 2.95568 16.5614 2.93568L5.83214 2.00269C5.67886 1.99604 5.56557 2.12264 5.60555 2.25594L6.55853 5.72131V5.71464ZM7.53817 11.8724L6.11204 6.7476L5.92544 6.08118L5.15905 3.35552C5.10573 3.1556 4.81251 3.1556 4.75253 3.35552L2.00689 13.1785C1.9669 13.3319 2.10685 13.4718 2.27346 13.4318L7.38489 12.119C7.49152 12.0989 7.55816 11.9857 7.5315 11.8724H7.53817ZM18.6274 3.52879C18.9273 3.44882 19.2606 3.58211 19.4204 3.84201L21.9727 8.1071C22.0395 8.21372 21.9794 8.36697 21.8395 8.40693L8.49777 11.8257C8.47118 11.836 8.44273 11.8405 8.41427 11.8389C8.38582 11.8372 8.35798 11.8296 8.33279 11.8162C8.30744 11.803 8.28536 11.7845 8.26795 11.762C8.25038 11.7396 8.23794 11.7134 8.23125 11.6858L6.86508 6.7676C6.8251 6.6543 6.89175 6.541 7.0117 6.51435L18.6274 3.52879ZM7.83139 12.9319C7.82399 12.9049 7.81096 12.8795 7.79312 12.8577C7.77528 12.836 7.75306 12.8182 7.72791 12.8057C7.70275 12.7932 7.67522 12.7861 7.64712 12.7848C7.61901 12.7836 7.59097 12.7884 7.56482 12.7987L2.45339 14.1115C2.30012 14.1448 2.24014 14.3448 2.35342 14.4448L9.87066 21.7287C10.0305 21.8754 10.2838 21.7354 10.2372 21.5288L7.83806 12.9386L7.83139 12.9319ZM8.67115 12.4989L21.3997 9.22003C21.6062 9.17338 21.7529 9.39325 21.6263 9.55326L11.43 21.922C11.3235 22.0553 11.1101 22.0019 11.0568 21.8419L8.52452 12.752C8.48456 12.6453 8.5578 12.5321 8.67115 12.4989Z" fill="white"/>
</svg>

<svg xmlns="http://www.w3.org/2000/svg" width="24" height="24" fill="none" viewBox="0 0 24 24">
    <path fill="#fff" d="M6.559 5.715a.2.2 0 0 0 .266.14l9.777-2.52c.233-.053.206-.38-.04-.4l-10.73-.932c-.153-.007-.266.12-.226.253l.953 3.465zm.98 6.157L6.111 6.748l-.187-.667-.766-2.725c-.053-.2-.346-.2-.406 0l-2.746 9.823c-.04.153.1.293.266.253l5.112-1.313c.107-.02.173-.133.147-.247zM18.626 3.53c.3-.08.634.053.793.313l2.553 4.265c.067.107.006.26-.133.3L8.498 11.826a.2.2 0 0 1-.267-.14L6.865 6.768c-.04-.114.027-.227.147-.254zM7.831 12.932a.2.2 0 0 0-.184-.147.2.2 0 0 0-.082.014l-5.112 1.313c-.153.033-.213.233-.1.333l7.518 7.284c.16.146.413.006.366-.2l-2.399-8.59zm.84-.433L21.4 9.22c.206-.047.353.173.226.333L11.43 21.922c-.107.133-.32.08-.373-.08l-2.532-9.09c-.04-.107.033-.22.146-.253"/>
</svg>
